X:5
T:Chilly Winds
M:4/4
R:reel
Q:1/2=120
L:1/8
K:Am
A,2|"Dm"D2D2 F2FG|"F"AGFG AGFG|"Dm"D2D2 F2FG|"Am"A3cA2A,2|
"Dm"D2D2 F2FG|"F"AGFG AGFG|"Dm"AGF2 "Am"D2C2|"Dm"D4 D2:|
|:d2|"Dm"d2c2 A2c2|"Am"AGF2 "Dm"D2d2|"Dm"d2c2 A2c2|"Am"A3c A2c2|
"Dm"d2c2 A2c2|"Am"AGF2 "Dm"D2A2|"Dm"AGF2 "Am"D2C2|"Dm (last time, D major)"D4 D2:|
